X: 2
T: Sheehan's
R: reel
M: 4/4
L: 1/8
K: Gmaj
D |:{EF}G2 BG DGBG|ABcA BGGB|AGAB cABG|EAAG FDEF|{EF}G2 BG DGBd| cBAB cdef|gedB {B}c2 Bc|dBcA BG G2:||:g2 bg dgbg|gbag fede|f2 af dfaf|gbag fedf|g2 bg dgbg|gbag fedf|gedB {B}c2 Bc|dBcA BG G2:|


Tune 1178	Setting 1178

